X: 1506
T: Polonäs ur A Westerlunds notbok nr 121
M: 3/4
L: 1/16
O: Skåne
B: A Westerlunds notbok nr 121
B: [[http://www.smus.se/earkiv/fmk/browselarge.php?lang=sw&katalogid=M+137&bildnr=00053|SMUS - katalog M137 bild 53]] nr 121
R: Polonäs
Z: Nils L
K: ADor
A2c2 c2d2 d2e2 | f2a2 a2fa g2fg | f2d2 d2Bd c2Ac | B2A^G A4 A,4 :: 
e4 g2eg f2d2 | defg a4 f4 | f2ed c2d2 e2f2 | A2Bc d4 D4 :|
(:musicend:)
(:music:)
